X:7704
T:Truffles
O:england
M:2/4
C:Davis Sweet
S:RJJ ex NTMM
N:Lummoxshire Lead Miners
A:Amble on Down
R:Reel
L:1/8
I:speed 200
K:G
P:A
|: z F | GG AA | BB c2 | BB AA | G2 :|\
P:B
|: z F | dd cc | BB A2 | dd cc | B2 z F | GG AA | BB c2 | BB AA | G2 :|


